archdroid-icon-theme/Archdroid-Yellow/apps/scalable/gnome-panel-force-quit.svg

<?xml version="1.0" encoding="UTF-8" standalone="no"?>
<svg
   xmlns:dc="http://purl.org/dc/elements/1.1/"
   xmlns:cc="http://creativecommons.org/ns#"
   xmlns:rdf="http://www.w3.org/1999/02/22-rdf-syntax-ns#"
   xmlns:svg="http://www.w3.org/2000/svg"
   xmlns="http://www.w3.org/2000/svg"
   xmlns:sodipodi="http://sodipodi.sourceforge.net/DTD/sodipodi-0.dtd"
   xmlns:inkscape="http://www.inkscape.org/namespaces/inkscape"
   fill="#FFEB3B"
   width="48"
   height="48"
   viewBox="0 0 48 48"
   id="svg2"
   version="1.1"
   inkscape:version="0.91 r13725"
   sodipodi:docname="gnome-panel-force-quit.svg">
  <metadata
     id="metadata10">
    <rdf:RDF>
      <cc:Work
         rdf:about="">
        <dc:format>image/svg+xml</dc:format>
        <dc:type
           rdf:resource="http://purl.org/dc/dcmitype/StillImage" />
      </cc:Work>
    </rdf:RDF>
  </metadata>
  <defs
     id="defs8" />
  <sodipodi:namedview
     pagecolor="#ffffff"
     bordercolor="#666666"
     borderopacity="1"
     objecttolerance="10"
     gridtolerance="10"
     guidetolerance="10"
     inkscape:pageopacity="0"
     inkscape:pageshadow="2"
     inkscape:window-width="1366"
     inkscape:window-height="713"
     id="namedview6"
     showgrid="false"
     inkscape:snap-bbox="true"
     inkscape:bbox-nodes="true"
     inkscape:zoom="13.14093862618927"
     inkscape:cx="-15.40008727230062"
     inkscape:cy="16.04664951417517"
     inkscape:window-x="0"
     inkscape:window-y="30"
     inkscape:window-maximized="1"
     inkscape:current-layer="svg2" />
  <path
     style="fill:#FFEB3B"
     d="M 10 6 C 9.446915262624115 6 8.920524354062884 6.111703551316451 8.443359375 6.314453125 C 7.013882328950747 6.921844434911517 6.01953125 8.343084737375886 6.01953125 10 L 6 38 C 6 40.21 7.789999999999999 42 10 42 L 38 42 C 40.21 42 42 40.21 42 38 L 42 10 C 42 7.79 40.21 6.000000000000001 38 6 L 36 6 L 32 6 L 16 6 L 12 6 L 10 6 z M 10 16 L 38 16 L 38 38 L 10 38 L 10 16 z M 17.6171875 19 L 16 20.6171875 L 22.3828125 27 L 16 33.3828125 L 17.6171875 35 L 24 28.6171875 L 30.3828125 35 L 32 33.3828125 L 25.6171875 27 L 32 20.6171875 L 30.3828125 19 L 24 25.3828125 L 17.6171875 19 z "
     id="path4148" />
</svg>

<svg xmlns="http://www.w3.org/2000/svg" fill="#FFEB3B" viewBox="0 0 48 48"><path d="m10 6c-.553 0-1.079.112-1.557.314-1.429.607-2.424 2.029-2.424 3.686l-.02 28c0 2.21 1.79 4 4 4h28c2.21 0 4-1.79 4-4v-28c0-2.21-1.79-4-4-4h-2-4-16-4-2m0 10h28v22h-28v-22m7.617 3l-1.617 1.617 6.383 6.383-6.383 6.383 1.617 1.617 6.383-6.383 6.383 6.383 1.617-1.617-6.383-6.383 6.383-6.383-1.617-1.617-6.383 6.383-6.383-6.383"/></svg>
